X: 680
T: Jefferson's Hornpipe
C:Traditional
B: jims roots
M:4/4
L:1/8
Q: 1/4=100
K:D
V:1 
EF |: "D"D2FA D2FA | d2cd AFDF | "G"GBAG "D"FAdf | "A"e2[A,2E] AGFE |
     "D"D2FA D2FA | d2cd AGFA | BcdB cdeg |[1 (3fgf d2d2 EF :|[2 (3fgf d2d2 ag||
f2dA DFAd | e2ce fedc | BGBd A2ce | agfg e2Ag |
f2d2 DFAd | e2f2 gfed | BGBd A2dA |[1  Egfe d2ag :|[2  Egfe d2 |]
% abcbook-tune_id 6298c25d1d52aa35ec84a77f


% abcbook-boost 0
% abcbook-tablature 
% abcbook-transpose 
% abcbook-lastupdated 1654178399112
% abcbook-soundfonts 
% abcbook-repeats 1


